X:1
T:Sonata in F minor
T:Domenico Scarlatti
T:K.466
%%score { ( 1 3 ) | ( 2 4 ) }
L:1/8
Q:1/4=75
M:4/4
K:Ab
V:1 treble nm="Piano" snm="Pno."
V:3 treble 
V:2 bass 
V:4 bass 
V:1
"^Andante moderato" z ac'a fcdA | Bgbg =ecdB | cfaf cAFC | d3 c2 BAG | A4 z2 (3=efg | %5
{/g} (3f=ef z2 z2 (3efg |{/g} (3f=ef z2 z2 (3=d_ef |{/f} (3e=dc z2 z2 (3=Bcd | %8
{/=d} (3c=Bc z2 z2 (3Bcd | gf{/g}fe{/f} e=d{/e}dc | =B4 z2{/d} (3cBc |{c} =d4 z2{/_d} (3c=Bc | %12
{c} =d4 z2 (3def |{/f} (3e=dc z2 z2 (3def | Gfec f=dc=B | c4 z2 =de | (3fe=d z2 z2 ef | %17
 (3gfe z2 z2 fg | a/g/ f3- fe=dc | =Bf=dB fedc | =Bf=dB ^f_edc |{/c} =d4 z2 (3def | %22
{/f} (3e=dc z2 z2 (3def | Gfec f=dc=B | c4 z2 (3gab |{/b} (3agf z2 z2 (3=def | %26
{/f} (3e=de{/g} (3fed c2 P=B2 | c4 z2 (3gab |{/b} (3agf z2 z2 (3=def | %29
{/f} (3e=de{/g} (3fed c2 P=B2 | [cc']2 (3agf (3e=dc (3=Bcd | [cc']2 (3agf (3e=dc (3=Bcd | %32
 [cc']2{/b} (3agf{/f} (3e=dc (3=Bcd | c8 :: z8 | z2 ag{/a} gf Pf3/2=e/4f/4 |{/f} g4 z4 | %37
 z2 ag{/a} gf{/g} fe | ed dc dc cB | (3cBA z2 z2 (3cde |{/e} (3dcB z2 z2 (3Bcd | %41
{/d} (3cBA z2 z2 (3cde |{/e} (3dcB z2 z2 (3Bcd |{/d} (3cBA ed dc cB |{/B} =A4 z2 TB3/2A/4B/4 | %45
{/B} c4 z2 TB3/2A/4B/4 |{/B} c4 z2 (3cde |{/e} (3dcB bf f=e=gB | (3AGF c'a{/b} ag{/a} gf | %49
{/f} g4 z2 Tf3/2=e/4f/4 |{/f} g4 z2 Tf3/2=e/4f/4 |{/f} g4 z2 (3gab |{/b} (3agf z2 z2 (3gab | %53
 cbaf bgf=e |{=e} f4 z2 ga | (3bag z2 z2 ab | (3c'ba z2 z2 bc' | d'c' b3 agf | =ebge bagf | %59
 =ebge =b_agf |{f} g4 z2 (3gab | (3agf z2 z2 (3gab | cbaf bgf=e |{=e} f4 z2 (3c'd'e' | %64
{/e'} (3d'c'b z2 z2 (3gab |{/b} (3aga{/c'} (3bag f2 P=e2 |{/=e} f4 z2 (3c'd'e' | %67
{/e'} (3d'c'b z2 z2 (3gab |{/b} (3agf{/c'} (3bag f2 P=e2 | f_edc =Bc (3_BAG | A_GF=E FCDB, | %71
 (3FGA{/c} (3BAG F2 P=E2 | [Ff]2{/e} (3dcB{/B} (3AGF (3=EFG | [Ff]2{/e} (3dcB{/B} (3AGF (3=EFG | %74
 (3fga (3bag f2 P=e2 | f8 :| %76
V:2
 F,4 [F,F]4 | [G,B,F]4 [G,B,=E]4 | [A,CF]4 [A,C]4 | [B,D]2 [A,C]2 [G,B,]2 [C,C]2 | F,FAF DB,G,=E | %5
 F,FAF DB,G,=E | A,FAF =DFG,=B, | C,CEC A,C=D,=B, | E,CEC A,C=D,B, | E,2 C2 F,2 A,2 | %10
 G,FAF =DFA,F | G,FAF =DFA,F | G,FAF =DFG,=B, | C,CEC A,CF,A, | G,,,4 G,,,4 | z E,F,G, A,=B,B,C | %16
 z F,G,A, =B,CC=D | z G,A,=B, C=DDE | z A,=B,C =DEEF | G,4 [G,A]4 | [G,G]4 [G,=A]4 | %21
 G,F_AF =DFG,=B, | C,CEC A,CF,A, | G,,,4 G,,,4 | C,=E,G,B, _DF=EC | F,A,CF[K:treble] Ac=BG | %26
 c2[K:bass] [F,F]2 [G,E]2 [G,=D]2 | C,=E,G,B, _DF=EC | F,A,CF[K:treble] Ac=BG | %29
 c2[K:bass] [F,F]2 [G,E]2 [G,=D]2 | [A,C]2 [F,F]2 [G,E]2 [G,=D]2 | [A,C]2 [F,F]2 [G,E]2 [G,=D]2 | %32
 [A,C]2 F,2 G,2 G,,2 | C,,8 :: C,=E,G,C[K:treble] =EG (3GAB | (3AGF F2 _E2 _D2 | %36
[K:bass] C,=E,G,C[K:treble] =EG (3GAB | (3AGF F2 _E2 D2 |[K:bass] C2 A,2 B,2 E,2 | A,CDE FGGA | %40
 E,G,A,B, CDDE | A,CDE FGGA | E,G,A,B, CDDE | A,2 [A,E]2 [A,E]2 [_G,E]2 | F,E_GE CE_G,E | %45
 F,E_GE CE_G,E | F,F_GE CEF,=A, | B,,2 [D,B,]2 [C,B,]2 [=E,C]2 | [F,C]2 [A,F]2 [B,F]2 [DF]2 | %49
[K:treble] CBdB GBDB | CBdB GBDB | CBdB GBC=E |[K:bass] F,FAF DFB,D | C,,4 C,,4 | F,A,B,C D=EEF | %55
 G,B,CD =EFFG | A,CD=E FGGA |[K:treble] B,D=EF GAAB | C4 [Cd]4 | [Cc]4 [C=d]4 | CBdB GBC=E | %61
[K:bass] F,FAF DFB,D | C,,4 C,,4 |[K:bass] F,=A,CE[K:treble] _GB=AF | B,DFB df=ec | f2 B2 c2 C2 | %66
[K:bass] F,=A,CE[K:treble] _GB=AF | B,DFB df=ec | f2 B2 c2 C2 |[K:bass] F,2 F,2 z2 [=E,C]2 | %70
 F,2 B,,2 A,,2 B,,2 | C,4 C,,4 | D,2 B,,2 C,2 C,,2 | D,2 B,,2 C,2 C,,2 | D,2 B,,2 C,2 C,,2 | %75
 F,,8 :| %76
V:3
 x8 | x8 | x8 |x=E F2 G2 FE | x8 | x8 | x8 | x8 | x8 | x8 | x8 | x8 | x8 | x8 | x8 | x8 | x8 | x8 | %18
 x8 | x8 | x8 | x8 | x8 | x8 | x8 | x8 | x8 | x8 | x8 | x8 | x8 | x8 | x8 | x8 :: x8 | x8 | x8 | %37
 x8 | x8 | x8 | x8 | x8 | x8 | x4 e2 e2 | e4 x2 e2 | e4 x2 e2 | e4 x4 | x8 | x8 | x6 b2 | %50
 b4 x2 b2 | b4 x4 | x8 | x8 | x8 | x8 | x8 | x8 | x8 | x8 | x8 | x8 | x8 | x8 | x8 | x8 | x8 | x8 | %68
 x8 | x8 | x8 | x8 | x8 | x8 | x8 | x8 :| %76
V:4
 x8 | x8 | x8 | x8 | x8 | x8 | x8 | x8 | x8 | x8 | x8 | x8 | x8 | x8 | x8 | C,8 | =D,8 | E,8 | %18
 F,8 | x8 | x8 | x8 | x8 | x8 | x8 | x4[K:treble] x4 | x2[K:bass] x6 | x8 | x4[K:treble] x4 | %29
 x2[K:bass] x6 | x8 | x8 | x8 | x8 :: x4[K:treble] x4 | x8 |[K:bass] x4[K:treble] x4 | x8 | %38
[K:bass] x8 | x8 | x8 | x8 | x8 | x8 | x8 | x8 | x8 | x8 | x8 |[K:treble] x8 | x8 | x8 | %52
[K:bass] x8 | x8 | x8 | x8 | x8 |[K:treble] x8 | x8 | x8 | x8 |[K:bass] x8 | x8 | %63
[K:bass] x4[K:treble] x4 | x8 | x8 |[K:bass] x4[K:treble] x4 | x8 | x8 |[K:bass] x8 | x8 | x8 | %72
 x8 | x8 | x8 | x8 :| %76

